tellnet/images/map-images/weekend.svg

<svg width="68" height="68" viewBox="0 0 68 68" fill="none" xmlns="http://www.w3.org/2000/svg">
<path d="M33.9682 68C26.7263 67.9932 19.6757 65.6743 13.8436 61.381C8.01152 57.0878 3.7026 51.0445 1.54461 44.1315C-0.613384 37.2186 -0.507708 29.7972 1.84624 22.9485C4.20019 16.0998 8.67943 10.1816 14.6314 6.05618C20.5834 1.9307 27.6971 -0.186537 34.9363 0.0129017C42.1755 0.21234 49.1619 2.71804 54.8777 7.16496C60.5935 11.6119 64.7401 17.7677 66.7134 24.7356C68.6868 31.7035 68.3837 39.1194 65.8483 45.9031C65.8309 45.9503 65.8043 45.9936 65.77 46.0305C65.7358 46.0674 65.6946 46.0972 65.6488 46.1182C65.603 46.1391 65.5536 46.1508 65.5033 46.1526C65.4529 46.1544 65.4028 46.1463 65.3556 46.1286C65.3085 46.111 65.2653 46.0842 65.2285 46.0498C65.1917 46.0154 65.1621 45.9741 65.1413 45.9282C65.1206 45.8823 65.1091 45.8328 65.1075 45.7825C65.1059 45.7322 65.1143 45.682 65.1321 45.635C67.6191 38.9963 67.9207 31.7368 65.993 24.9148C64.0652 18.0927 60.0089 12.0647 54.4153 7.70938C48.8217 3.35408 41.9833 0.899195 34.8968 0.702574C27.8104 0.505952 20.8463 2.57787 15.0198 6.61631C9.19338 10.6547 4.80907 16.4486 2.50602 23.1533C0.202962 29.858 0.101563 37.123 2.2166 43.8893C4.33164 50.6557 8.55254 56.5696 14.264 60.7691C19.9755 64.9685 26.879 67.234 33.9682 67.2352C34.0697 67.2352 34.1669 67.2755 34.2386 67.3472C34.3103 67.419 34.3506 67.5162 34.3506 67.6176C34.3506 67.719 34.3103 67.8163 34.2386 67.888C34.1669 67.9597 34.0697 68 33.9682 68Z" fill="white"/>
<path d="M33.7771 65.8378C27.3468 65.8147 21.0734 63.8498 15.7788 60.2006C10.4841 56.5514 6.41522 51.388 4.10505 45.3869C4.08721 45.34 4.07877 45.29 4.08024 45.2398C4.08171 45.1896 4.09305 45.1402 4.11361 45.0944C4.13417 45.0486 4.16356 45.0073 4.20008 44.9728C4.23661 44.9384 4.27956 44.9115 4.32649 44.8936C4.37342 44.8758 4.4234 44.8673 4.47359 44.8688C4.52378 44.8703 4.57319 44.8816 4.61899 44.9022C4.6648 44.9227 4.70611 44.9521 4.74056 44.9886C4.77501 45.0252 4.80193 45.0681 4.81977 45.1151C6.82729 50.3941 10.2399 55.0238 14.6885 58.5035C19.137 61.9832 24.4523 64.1804 30.0594 64.8576C35.6665 65.5347 41.3521 64.666 46.5011 62.3454C51.6502 60.0248 56.0668 56.3406 59.2734 51.6912C62.4799 47.0419 64.3543 41.6044 64.6938 35.9667C65.0333 30.3291 63.8251 24.7059 61.1997 19.7054C58.5744 14.7048 54.6318 10.5172 49.7985 7.59534C44.9652 4.67352 39.425 3.12873 33.7771 3.12804C33.6757 3.12804 33.5785 3.08776 33.5068 3.01605C33.4351 2.94434 33.3948 2.84708 33.3948 2.74566C33.3948 2.64425 33.4351 2.54699 33.5068 2.47528C33.5785 2.40357 33.6757 2.36329 33.7771 2.36329C37.9463 2.36124 42.0749 3.18064 45.9273 4.77467C49.7796 6.3687 53.2801 8.70613 56.2289 11.6534C59.1776 14.6007 61.5167 18.1001 63.1126 21.9516C64.7086 25.8032 65.53 29.9314 65.53 34.1006C65.53 38.2697 64.7086 42.3979 63.1126 46.2495C61.5167 50.101 59.1776 53.6004 56.2289 56.5477C53.2801 59.495 49.7796 61.8324 45.9273 63.4264C42.0749 65.0205 37.9463 65.8399 33.7771 65.8378V65.8378Z" fill="white"/>
<path d="M49.0407 29.5565C46.7702 23.5 42.5535 19.4812 39.6234 20.5805C38.9925 20.817 38.4735 21.2711 38.0692 21.8997C37.4028 22.9356 36.3035 23.6126 35.0712 23.6126H32.3769C31.1453 23.6126 30.0453 22.9356 29.3789 21.8997C28.9746 21.2711 28.4556 20.817 27.8247 20.5805C24.8946 19.4812 20.6779 23.5 18.4074 29.5565C16.1362 35.6123 16.6704 41.4119 19.6012 42.5113C21.8588 43.3575 24.8773 41.1626 27.1825 37.3395C28.3437 35.4143 30.3822 34.1903 32.6315 34.1903H34.8166C37.0659 34.1903 39.1044 35.4143 40.2656 37.3395C42.5708 41.1626 45.5893 43.3575 47.8469 42.5113C50.7777 41.4119 51.3119 35.6123 49.0407 29.5558V29.5565Z" stroke="white" stroke-miterlimit="10" stroke-linecap="round" stroke-linejoin="round"/>
<path d="M23.7126 33.9995C24.7558 33.9995 25.6015 33.1538 25.6015 32.1106C25.6015 31.0674 24.7558 30.2217 23.7126 30.2217C22.6694 30.2217 21.8237 31.0674 21.8237 32.1106C21.8237 33.1538 22.6694 33.9995 23.7126 33.9995Z" stroke="white" stroke-miterlimit="10" stroke-linecap="round" stroke-linejoin="round"/>
<path d="M26.3576 27.9545C26.7749 27.9545 27.1132 27.6162 27.1132 27.1989C27.1132 26.7816 26.7749 26.4434 26.3576 26.4434C25.9403 26.4434 25.6021 26.7816 25.6021 27.1989C25.6021 27.6162 25.9403 27.9545 26.3576 27.9545Z" stroke="white" stroke-miterlimit="10" stroke-linecap="round" stroke-linejoin="round"/>
<path d="M44.4911 34.7551C45.3257 34.7551 46.0022 34.0786 46.0022 33.244C46.0022 32.4095 45.3257 31.7329 44.4911 31.7329C43.6565 31.7329 42.98 32.4095 42.98 33.244C42.98 34.0786 43.6565 34.7551 44.4911 34.7551Z" stroke="white" stroke-miterlimit="10" stroke-linecap="round" stroke-linejoin="round"/>
<path d="M41.0912 30.2215C42.5517 30.2215 43.7357 29.0375 43.7357 27.5771C43.7357 26.1166 42.5517 24.9326 41.0912 24.9326C39.6307 24.9326 38.4468 26.1166 38.4468 27.5771C38.4468 29.0375 39.6307 30.2215 41.0912 30.2215Z" stroke="white" stroke-miterlimit="10" stroke-linecap="round" stroke-linejoin="round"/>
<path d="M21.069 37.7772C21.4863 37.7772 21.8246 37.439 21.8246 37.0217C21.8246 36.6044 21.4863 36.2661 21.069 36.2661C20.6518 36.2661 20.3135 36.6044 20.3135 37.0217C20.3135 37.439 20.6518 37.7772 21.069 37.7772Z" stroke="white" stroke-miterlimit="10" stroke-linecap="round" stroke-linejoin="round"/>
<path d="M30.8906 27.1992H33.1573V27.9548H30.8906V27.1992Z" stroke="white" stroke-miterlimit="10" stroke-linecap="round" stroke-linejoin="round"/>
<path d="M44.4912 42.3105C44.4912 42.3105 43.5468 47.3161 36.1801 44.5772C28.8134 41.8383 23.9968 45.7105 24.0912 47.5994" stroke="white" stroke-miterlimit="10" stroke-linecap="round" stroke-linejoin="round"/>
</svg>

<?xml version="1.0" encoding="UTF-8" standalone="no"?>
<svg width="68" xmlns="http://www.w3.org/2000/svg" fill="none" viewBox="0 0 68 68" height="68">
 <path d="m33.968 68c-7.242-0.007-14.292-2.326-20.124-6.619-5.8325-4.293-10.141-10.337-12.299-17.249-2.1584-6.913-2.0527-14.335 0.3012-21.184 2.354-6.848 6.8332-12.766 12.785-16.892 5.952-4.1253 13.066-6.2425 20.305-6.0431 7.24 0.19944 14.226 2.7051 19.942 7.1521s9.862 10.603 11.835 17.571c1.974 6.968 1.671 14.383-0.865 21.167-0.017 0.047-0.044 0.091-0.078 0.127-0.034 0.037-0.075 0.067-0.121 0.088s-0.095 0.033-0.146 0.035c-0.05 0.001-0.1-0.007-0.147-0.024-0.048-0.018-0.091-0.045-0.128-0.079-0.036-0.035-0.066-0.076-0.087-0.122-0.02-0.046-0.032-0.095-0.033-0.146-0.002-0.05 0.006-0.1 0.024-0.147 2.487-6.639 2.789-13.898 0.861-20.72s-5.984-12.85-11.578-17.206c-5.593-4.3549-12.432-6.8098-19.518-7.0064-7.087-0.19665-14.051 1.8753-19.877 5.9137-5.8266 4.0387-10.211 9.8327-12.514 16.537-2.303 6.705-2.4044 13.97-0.2894 20.736 2.115 6.767 6.3359 12.681 12.047 16.88 5.712 4.199 12.615 6.465 19.704 6.466 0.102 0 0.199 0.041 0.271 0.112 0.071 0.072 0.112 0.169 0.112 0.271 0 0.101-0.041 0.198-0.112 0.27-0.072 0.072-0.169 0.112-0.271 0.112z" fill="#fff"/>
 <path d="m33.777 65.838c-6.43-0.023-12.704-1.988-17.998-5.637-5.295-3.65-9.3638-8.813-11.674-14.814-0.0178-0.047-0.0262-0.097-0.0248-0.147 0.0015-0.05 0.0128-0.1 0.0334-0.146 0.0206-0.045 0.05-0.087 0.0865-0.121 0.0365-0.035 0.0795-0.061 0.1264-0.079s0.0969-0.027 0.1471-0.025c0.0502 0.001 0.0996 0.013 0.1454 0.033 0.0458 0.021 0.0871 0.05 0.1216 0.087 0.0344 0.036 0.0613 0.079 0.0792 0.126 2.0075 5.279 5.4202 9.909 9.8682 13.389 4.449 3.479 9.764 5.676 15.371 6.354 5.607 0.677 11.293-0.192 16.442-2.513 5.149-2.32 9.566-6.004 12.772-10.654 3.207-4.649 5.081-10.087 5.421-15.724 0.339-5.638-0.869-11.261-3.494-16.262-2.626-5-6.568-9.188-11.402-12.11-4.833-2.9215-10.373-4.4663-16.021-4.467-0.101 0-0.199-0.0402-0.27-0.112-0.072-0.0717-0.112-0.1689-0.112-0.2703 0-0.1015 0.04-0.1987 0.112-0.2704 0.071-0.0717 0.169-0.112 0.27-0.112 4.169-0.0021 8.298 0.8173 12.15 2.4114 3.853 1.594 7.353 3.9314 10.302 6.8783 2.949 2.948 5.288 6.447 6.884 10.299 1.596 3.851 2.417 7.979 2.417 12.149 0 4.169-0.821 8.297-2.417 12.149-1.596 3.851-3.935 7.35-6.884 10.298-2.949 2.947-6.449 5.284-10.302 6.878-3.852 1.594-7.981 2.414-12.15 2.412z" fill="#fff"/>
 <path stroke-linejoin="round" stroke="#fff" stroke-linecap="round" stroke-miterlimit="10" d="m49.041 29.556c-2.271-6.056-6.487-10.075-9.418-8.976-0.631 0.237-1.149 0.691-1.554 1.32-0.666 1.036-1.765 1.713-2.998 1.713h-2.694c-1.232 0-2.332-0.677-2.998-1.713-0.404-0.629-0.923-1.083-1.554-1.32-2.93-1.099-7.147 2.92-9.418 8.976s-1.737 11.856 1.194 12.955c2.258 0.847 5.276-1.348 7.581-5.171 1.162-1.926 3.2-3.15 5.45-3.15h2.185c2.249 0 4.287 1.224 5.449 3.15 2.305 3.823 5.323 6.018 7.581 5.171 2.931-1.099 3.465-6.899 1.194-12.955v0z"/>
 <path stroke-linejoin="round" stroke="#fff" stroke-linecap="round" stroke-miterlimit="10" d="m23.713 34c1.043 0 1.889-0.846 1.889-1.889 0-1.044-0.846-1.889-1.889-1.889-1.044 0-1.889 0.845-1.889 1.889 0 1.043 0.845 1.889 1.889 1.889z"/>
 <path stroke-linejoin="round" stroke="#fff" stroke-linecap="round" stroke-miterlimit="10" d="m26.358 27.954c0.417 0 0.755-0.338 0.755-0.755s-0.338-0.756-0.755-0.756c-0.418 0-0.756 0.339-0.756 0.756s0.338 0.755 0.756 0.755z"/>
 <path stroke-linejoin="round" stroke="#fff" stroke-linecap="round" stroke-miterlimit="10" d="m44.491 34.755c0.835 0 1.511-0.676 1.511-1.511 0-0.834-0.676-1.511-1.511-1.511s-1.511 0.677-1.511 1.511c0 0.835 0.676 1.511 1.511 1.511z"/>
 <path stroke-linejoin="round" stroke="#fff" stroke-linecap="round" stroke-miterlimit="10" d="m41.091 30.222c1.461 0 2.645-1.184 2.645-2.645 0-1.46-1.184-2.644-2.645-2.644-1.46 0-2.644 1.184-2.644 2.644 0 1.461 1.184 2.645 2.644 2.645z"/>
 <path stroke-linejoin="round" stroke="#fff" stroke-linecap="round" stroke-miterlimit="10" d="m21.069 37.777c0.417 0 0.756-0.338 0.756-0.755 0-0.418-0.339-0.756-0.756-0.756s-0.755 0.338-0.755 0.756c0 0.417 0.338 0.755 0.755 0.755z"/>
 <path stroke-linejoin="round" stroke="#fff" stroke-linecap="round" stroke-miterlimit="10" d="m30.891 27.199h2.266v0.756h-2.266v-0.756z"/>
 <path stroke-linejoin="round" stroke="#fff" stroke-linecap="round" stroke-miterlimit="10" d="m44.491 42.31s-0.944 5.006-8.311 2.267-12.183 1.133-12.089 3.022"/>
</svg>
